deployments/warp_routes/USDT/oUSDT-logo.svg

<svg xmlns="http://www.w3.org/2000/svg" width="1201" height="1200" fill="none" viewBox="0 0 1201 1200"><circle cx="600.821" cy="600" r="600" fill="#FF0420"/><g clip-path="url(#a)"><path fill="#fff" d="M1072.9 593.567v8.82C864.745 706.051 708.886 861.91 605.223 1070.07h-8.82C492.739 862.013 336.88 706.051 128.723 602.387v-8.82c208.157-103.663 364.016-259.522 467.68-467.679h8.82C708.886 334.045 864.745 489.904 1072.9 593.567"/><path fill="#FF0420" fill-rule="evenodd" d="M632.999 759.031v57.89H565.87v-58.632q-23.141-3.13-40.922-10.532-30.805-13.283-46.438-37.101-15.173-24.277-15.173-57.256h76.325q0 12.368 6.896 21.986 6.897 9.619 20.691 15.116 14.253 5.038 35.404 5.038 27.587 0 43.22-8.703 16.092-9.16 16.092-26.108 0-14.199-13.334-22.902-12.873-9.16-43.22-11.909l-21.15-1.832q-50.577-4.581-80.463-30.231-29.886-26.109-29.886-73.287 0-32.52 14.253-54.049 14.254-21.527 41.381-32.063 15.453-6.262 34.484-8.956v-46.467h67.129v47.346q18.211 3.2 32.645 9.909 28.047 12.367 42.301 35.728 14.253 23.36 14.253 56.797h-76.324q0-11.909-5.978-20.612-5.977-9.16-17.012-14.199-10.575-5.497-26.208-5.497-14.253 0-24.369 4.123-9.655 3.664-15.173 10.993-5.057 6.87-5.057 16.947 0 12.367 9.196 22.902 9.655 10.077 32.185 12.367l21.15 1.833q57.014 4.58 91.038 30.23 34.484 25.192 34.484 72.829 0 32.521-15.633 54.965-15.633 21.986-45.979 33.437-19.176 7.236-43.679 9.9" clip-rule="evenodd"/><path fill="#FF0420" d="M524.948 747.757q-30.805-13.283-46.438-37.101-15.173-24.277-15.173-57.256h76.325q0 12.368 6.896 21.986 6.897 9.619 20.691 15.116 14.253 5.038 35.404 5.038 27.587 0 43.22-8.703 16.092-9.16 16.092-26.108 0-14.199-13.334-22.902-12.873-9.16-43.22-11.909l-21.15-1.832q-50.577-4.581-80.463-30.231-29.886-26.109-29.886-73.287 0-32.52 14.253-54.049 14.254-21.527 41.381-32.063 15.453-6.262 34.484-8.956v-46.467h67.129v47.346q18.211 3.2 32.645 9.909 28.047 12.367 42.301 35.728 14.253 23.36 14.253 56.797h-76.324q0-11.909-5.978-20.612-5.977-9.16-17.012-14.199-10.575-5.497-26.208-5.497-14.253 0-24.369 4.123-9.655 3.664-15.173 10.993-5.057 6.87-5.057 16.947 0 12.367 9.196 22.902 9.655 10.077 32.185 12.367l21.15 1.833q57.014 4.58 91.038 30.23 34.484 25.192 34.484 72.829 0 32.521-15.633 54.965-15.633 21.986-45.979 33.437-19.176 7.236-43.679 9.9v57.89H565.87v-58.632q-23.141-3.13-40.922-10.532"/></g><defs><clipPath id="a"><path fill="#fff" d="M128.723 127.911h944.179v944.179H128.723z"/></clipPath></defs></svg>

<svg width="1201" height="1200" viewBox="0 0 1201 1200" fill="none" xmlns="http://www.w3.org/2000/svg">
<circle cx="600.821" cy="600" r="600" fill="#FF0420"/>
<g clip-path="url(#clip0_64_11720)">
<path d="M1072.9 593.567V602.387C864.745 706.051 708.886 861.91 605.223 1070.07H596.403C492.739 862.013 336.88 706.051 128.723 602.387V593.567C336.88 489.904 492.739 334.045 596.403 125.888H605.223C708.886 334.045 864.745 489.904 1072.9 593.567Z" fill="white"/>
<path fill-rule="evenodd" clip-rule="evenodd" d="M632.999 759.031V816.921H565.87V758.289C550.442 756.203 536.802 752.692 524.948 747.757C504.411 738.902 488.932 726.534 478.51 710.656C468.395 694.471 463.337 675.386 463.337 653.4H539.662C539.662 661.645 541.961 668.974 546.558 675.386C551.156 681.799 558.053 686.837 567.249 690.502C576.751 693.861 588.552 695.54 602.653 695.54C621.044 695.54 635.451 692.639 645.873 686.837C656.601 680.73 661.965 672.027 661.965 660.729C661.965 651.263 657.521 643.629 648.631 637.827C640.049 631.72 625.642 627.75 605.411 625.918L584.261 624.086C550.543 621.032 523.722 610.955 503.798 593.855C483.874 576.449 473.912 552.02 473.912 520.568C473.912 498.888 478.663 480.871 488.165 466.519C497.668 452.167 511.461 441.48 529.546 434.456C539.848 430.282 551.342 427.296 564.03 425.5V379.033H631.159V426.379C643.3 428.512 654.181 431.815 663.804 436.288C682.502 444.533 696.602 456.442 706.105 472.016C715.607 487.589 720.358 506.522 720.358 528.813H644.034C644.034 520.874 642.041 514.003 638.056 508.201C634.071 502.094 628.401 497.361 621.044 494.002C613.994 490.337 605.258 488.505 594.836 488.505C585.334 488.505 577.211 489.879 570.467 492.628C564.03 495.07 558.973 498.735 555.294 503.621C551.923 508.201 550.237 513.85 550.237 520.568C550.237 528.813 553.302 536.447 559.433 543.47C565.87 550.188 576.598 554.311 591.618 555.837L612.768 557.67C650.777 560.723 681.123 570.8 703.806 587.9C726.795 604.695 738.29 628.971 738.29 660.729C738.29 682.41 733.079 700.731 722.657 715.694C712.235 730.351 696.909 741.497 676.678 749.131C663.894 753.955 649.334 757.255 632.999 759.031Z" fill="#FF0420"/>
<path d="M524.948 747.757C504.411 738.902 488.932 726.534 478.51 710.656C468.395 694.471 463.337 675.386 463.337 653.4H539.662C539.662 661.645 541.961 668.974 546.558 675.386C551.156 681.799 558.053 686.837 567.249 690.502C576.751 693.861 588.552 695.54 602.653 695.54C621.044 695.54 635.451 692.639 645.873 686.837C656.601 680.73 661.965 672.027 661.965 660.729C661.965 651.263 657.521 643.629 648.631 637.827C640.049 631.72 625.642 627.75 605.411 625.918L584.261 624.086C550.543 621.032 523.722 610.955 503.798 593.855C483.874 576.449 473.912 552.02 473.912 520.568C473.912 498.888 478.663 480.871 488.165 466.519C497.668 452.167 511.461 441.48 529.546 434.456C539.848 430.282 551.342 427.296 564.03 425.5V379.033H631.159V426.379C643.3 428.512 654.181 431.815 663.804 436.288C682.502 444.533 696.602 456.442 706.105 472.016C715.607 487.589 720.358 506.522 720.358 528.813H644.034C644.034 520.874 642.041 514.003 638.056 508.201C634.071 502.094 628.401 497.361 621.044 494.002C613.994 490.337 605.258 488.505 594.836 488.505C585.334 488.505 577.211 489.879 570.467 492.628C564.03 495.07 558.973 498.735 555.294 503.621C551.923 508.201 550.237 513.85 550.237 520.568C550.237 528.813 553.302 536.447 559.433 543.47C565.87 550.188 576.598 554.311 591.618 555.837L612.768 557.67C650.777 560.723 681.123 570.8 703.806 587.9C726.795 604.695 738.29 628.971 738.29 660.729C738.29 682.41 733.079 700.731 722.657 715.694C712.235 730.351 696.909 741.497 676.678 749.131C663.894 753.955 649.334 757.255 632.999 759.031V816.921H565.87V758.289C550.442 756.203 536.802 752.692 524.948 747.757Z" fill="#FF0420"/>
</g>
<defs>
<clipPath id="clip0_64_11720">
<rect width="944.179" height="944.179" fill="white" transform="translate(128.723 127.911)"/>
</clipPath>
</defs>
</svg>
